src/assets/logo-small.svg

<svg width="46" height="16" viewBox="0 0 46 16" fill="none" xmlns="http://www.w3.org/2000/svg">
<g clip-path="url(#clip0)">
<path d="M7.71176 0.643555H2.20497C0.739561 0.643555 0 1.44762 0 3.04025V11.5641C0 11.7728 0.0991996 11.9014 0.312922 11.9014H1.97754C2.17675 11.9014 2.30498 11.7728 2.30498 11.5641V11.2404C2.30498 10.4509 2.59935 10.0207 3.33085 9.9377H7.71176C9.31912 9.9377 10.045 9.15004 10.045 7.42887V3.15238C10.045 1.43121 9.31912 0.643555 7.71176 0.643555ZM7.74241 6.70503C7.74241 7.63855 7.5553 7.8309 6.57298 7.8309H4.23978C3.25826 7.8309 2.63161 8.20103 2.30417 8.92487V3.66746C2.30417 2.94362 2.46063 2.75035 3.24294 2.75035H6.57298C7.5553 2.75035 7.74241 2.94362 7.74241 3.87622V6.70503Z" fill="white"/>
<path d="M15.3234 5.35583C14.0572 5.35583 13.5161 6.07967 13.5161 7.30217V11.596C13.5161 11.7893 13.4306 11.9014 13.2314 11.9014H11.7232C11.524 11.9014 11.4248 11.7893 11.4248 11.596V3.7477C11.4248 3.55443 11.524 3.44139 11.7232 3.44139H12.9894C13.1749 3.44139 13.2741 3.55443 13.2741 3.7477V5.01396C13.5161 3.96923 14.2137 3.43774 15.4517 3.43774H15.9638C16.1485 3.43774 16.2477 3.55079 16.2477 3.74405V5.05043C16.2477 5.2592 16.1485 5.35583 15.9638 5.35583H15.3234Z" fill="white"/>
<path d="M25.1404 9.60135C25.1404 11.194 24.5145 11.9014 23.0209 11.9014H19.3215C17.8415 11.9014 17.2012 11.194 17.2012 9.60135V5.7433C17.2012 4.15158 17.8415 3.44324 19.3215 3.44324H23.0209C24.5145 3.44324 25.1404 4.15158 25.1404 5.7433V9.60135ZM23.0491 6.35318C23.0491 5.5163 22.9072 5.35585 22.0249 5.35585H20.3312C19.4352 5.35585 19.2924 5.5163 19.2924 6.35318V8.99055C19.2924 9.82652 19.4352 9.98788 20.3312 9.98788H22.0249C22.9072 9.98788 23.0491 9.82652 23.0491 8.99055V6.35318Z" fill="white"/>
<path d="M27.2459 5.35587H26.5337C26.3482 5.35587 26.249 5.25924 26.249 5.05047V3.74774C26.249 3.55447 26.3482 3.44143 26.5337 3.44143H27.245V2.39669C27.2459 0.804064 27.9854 0 29.4508 0H31.2009C31.4001 0 31.4856 0.113043 31.4856 0.305399V1.60813C31.4856 1.81781 31.4001 1.91353 31.2009 1.91353H30.2767C29.4936 1.91353 29.3371 2.10679 29.3371 2.83063V3.44143H31.2009C31.4001 3.44143 31.4856 3.55447 31.4856 3.74774V5.05047C31.4856 5.25924 31.4001 5.35587 31.2009 5.35587H29.3371V11.596C29.3371 11.7893 29.2379 11.9014 29.0387 11.9014H27.5305C27.3313 11.9014 27.2459 11.7893 27.2459 11.596V5.35587Z" fill="white"/>
<path d="M33.0511 5.35587H32.3405C32.1558 5.35587 32.0566 5.25924 32.0566 5.05047V3.74774C32.0566 3.55447 32.1558 3.44143 32.3405 3.44143H33.0527V2.39669C33.0511 0.804064 33.7922 0 35.256 0H37.0061C37.2053 0 37.2908 0.113043 37.2908 0.305399V1.60813C37.2908 1.81781 37.2053 1.91353 37.0061 1.91353H36.0811C35.2988 1.91353 35.1423 2.10679 35.1423 2.83063V3.44143H37.0061C37.2053 3.44143 37.2908 3.55447 37.2908 3.74774V5.05047C37.2908 5.25924 37.2053 5.35587 37.0061 5.35587H35.1423V11.596C35.1423 11.7893 35.0423 11.9014 34.8431 11.9014H33.3349C33.1357 11.9014 33.0511 11.7893 33.0511 11.596V5.35587Z" fill="white"/>
<path d="M43.6504 15.1824H40.5486C39.155 15.1824 38.5573 14.5716 38.5573 13.0592V12.8988C38.5532 12.8556 38.5577 12.8119 38.5706 12.771C38.5834 12.7301 38.6042 12.693 38.6315 12.6624C38.6588 12.6318 38.6918 12.6086 38.7281 12.5945C38.7644 12.5803 38.8031 12.5756 38.8412 12.5806H40.2929C40.4921 12.5806 40.5913 12.6936 40.5913 12.9024V12.9826C40.5913 13.3044 40.7486 13.433 41.0615 13.433H42.8544C43.7077 13.433 43.9214 13.1923 43.9214 12.3718V9.83475C43.594 10.5586 42.9681 10.9287 41.9858 10.9287H40.5341C39.0542 10.9287 38.3993 10.2213 38.3993 8.62866V3.74775C38.3973 3.7056 38.4035 3.66348 38.4173 3.62428C38.4311 3.58507 38.4523 3.54971 38.4793 3.52061C38.5064 3.49152 38.5387 3.46937 38.574 3.45571C38.6093 3.44204 38.6468 3.43717 38.684 3.44144H40.2066C40.3913 3.44144 40.4913 3.55448 40.4913 3.74775V8.02242C40.4913 8.85839 40.6478 9.01975 41.5301 9.01975H42.6116C43.5504 9.01975 43.9206 8.5849 43.9206 7.70061V3.74775C43.9206 3.55448 44.0198 3.44144 44.2053 3.44144H45.7288C45.7652 3.43746 45.8019 3.44266 45.8364 3.45666C45.8708 3.47066 45.9021 3.49312 45.9279 3.52241C45.9537 3.5517 45.9735 3.5871 45.9858 3.62607C45.9981 3.66503 46.0026 3.70659 45.9989 3.74775V12.6253C45.9981 14.3127 45.2013 15.1824 43.6504 15.1824Z" fill="white"/>
</g>
<defs>
<clipPath id="clip0">
<rect width="46" height="15.2156" fill="white"/>
</clipPath>
</defs>
</svg>

<svg width="46" height="16" fill="none" xmlns="http://www.w3.org/2000/svg"><g clip-path="url(#a)" fill="#fff"><path d="M7.712.644H2.205C.74.644 0 1.448 0 3.04v8.524c0 .209.1.337.313.337h1.665c.199 0 .327-.128.327-.337v-.324c0-.79.294-1.22 1.026-1.302h4.38c1.608 0 2.334-.788 2.334-2.51V3.153c0-1.72-.726-2.508-2.333-2.508Zm.03 6.061c0 .934-.187 1.126-1.169 1.126H4.24c-.982 0-1.608.37-1.936 1.094V3.667c0-.723.157-.917.939-.917h3.33c.982 0 1.17.194 1.17 1.126v2.829ZM15.323 5.356c-1.266 0-1.807.724-1.807 1.946v4.294c0 .193-.085.305-.285.305h-1.508c-.199 0-.298-.112-.298-.305V3.748c0-.194.099-.307.298-.307h1.266c.186 0 .285.113.285.307v1.266c.242-1.045.94-1.576 2.178-1.576h.512c.184 0 .284.113.284.306V5.05c0 .21-.1.306-.284.306h-.64ZM25.14 9.601c0 1.593-.625 2.3-2.12 2.3h-3.698c-1.48 0-2.12-.707-2.12-2.3V5.743c0-1.591.64-2.3 2.12-2.3h3.699c1.494 0 2.12.709 2.12 2.3v3.858Zm-2.09-3.248c0-.837-.143-.997-1.025-.997H20.33c-.896 0-1.039.16-1.039.997v2.638c0 .836.143.997 1.04.997h1.693c.882 0 1.024-.161 1.024-.997V6.353ZM27.246 5.356h-.712c-.186 0-.285-.097-.285-.306V3.748c0-.194.1-.307.285-.307h.711V2.397c0-1.593.74-2.397 2.206-2.397h1.75c.2 0 .285.113.285.305v1.303c0 .21-.086.306-.285.306h-.924c-.783 0-.94.193-.94.917v.61h1.864c.2 0 .285.113.285.307V5.05c0 .21-.086.306-.285.306h-1.864v6.24c0 .193-.1.305-.298.305H27.53c-.199 0-.284-.112-.284-.305v-6.24ZM33.051 5.356h-.71c-.185 0-.284-.097-.284-.306V3.748c0-.194.099-.307.283-.307h.713V2.397C33.05.804 33.793 0 35.256 0h1.75c.2 0 .285.113.285.305v1.303c0 .21-.086.306-.285.306h-.925c-.782 0-.939.193-.939.917v.61h1.864c.2 0 .285.113.285.307V5.05c0 .21-.086.306-.285.306h-1.864v6.24c0 .193-.1.305-.299.305h-1.508c-.2 0-.284-.112-.284-.305v-6.24ZM43.65 15.182H40.55c-1.394 0-1.992-.61-1.992-2.123v-.16a.324.324 0 0 1 .014-.128.295.295 0 0 1 .06-.109.252.252 0 0 1 .097-.068.228.228 0 0 1 .113-.013h1.452c.2 0 .298.113.298.321v.08c0 .322.158.451.47.451h1.793c.854 0 1.067-.24 1.067-1.061V9.835c-.327.724-.953 1.094-1.935 1.094h-1.452c-1.48 0-2.135-.708-2.135-2.3V3.748a.326.326 0 0 1 .018-.124.298.298 0 0 1 .062-.103.256.256 0 0 1 .095-.065.23.23 0 0 1 .11-.015h1.523c.184 0 .284.113.284.307v4.274c0 .836.157.998 1.04.998h1.08c.94 0 1.31-.435 1.31-1.32V3.749c0-.194.099-.307.284-.307h1.524a.221.221 0 0 1 .107.016.246.246 0 0 1 .092.065.312.312 0 0 1 .071.225v8.878c0 1.688-.798 2.557-2.349 2.557Z"/></g><defs><clipPath id="a"><path fill="#fff" d="M0 0h46v15.216H0z"/></clipPath></defs></svg>
